packages/core/src/svgs/tips.svg

<svg width="24" height="24" viewBox="0 0 24 24" fill="none" xmlns="http://www.w3.org/2000/svg">
<g clip-path="url(#clip0_31_19793)">
<path d="M0 0H24V24H0V0Z" fill="url(#paint0_linear_31_19793)"/>
<path d="M9.55708 9.15443C8.99994 9.15443 8.86279 8.65728 8.86279 8.40871C9.01708 7.83014 9.59136 6.42871 10.7228 6.42871C12.3514 6.42871 14.0699 6.60871 14.9999 6.85728C12.9085 7.35443 10.2556 9.15443 9.55708 9.15443Z" fill="#F7C91E"/>
<path fill-rule="evenodd" clip-rule="evenodd" d="M8.86307 8.9058C8.86307 9.15437 9.18021 9.42866 9.64307 9.42866C9.93021 9.42866 10.7574 9.00009 11.7002 8.5158C13.0331 7.83009 14.5931 7.02437 15.1374 7.17008C15.2916 7.41866 15.6516 8.4558 15.8359 9.64723L15.9774 9.70723C17.0574 10.1444 19.2859 11.0529 19.2859 12.0001C19.2859 13.2387 15.8359 17.5715 10.7231 17.5715C5.60592 17.5715 5.14307 14.1044 5.14307 13.3629C5.14307 12.6172 6.07307 10.8858 8.63164 9.89151C8.78592 9.81437 8.86307 9.30008 8.86307 8.9058ZM8.14307 11.5715C8.29735 11.9829 8.98307 12.8572 10.2859 12.8572C11.9145 12.8572 15.3945 10.7829 15.8574 10.2858V12.2144C15.8574 12.7715 12.3431 14.7858 10.7145 14.7858C9.08592 14.7858 7.92878 13.6115 7.92878 13.1144C7.92878 12.7201 8.06592 11.9015 8.14307 11.5715Z" fill="#F7C91E"/>
</g>
<defs>
<linearGradient id="paint0_linear_31_19793" x1="4.46571" y1="4.16143" x2="29.2071" y2="32.58" gradientUnits="userSpaceOnUse">
<stop stop-color="#1A1E21"/>
<stop offset="1" stop-color="#06060A"/>
</linearGradient>
<clipPath id="clip0_31_19793">
<rect width="24" height="24" fill="white"/>
</clipPath>
</defs>
</svg>

<svg xmlns="http://www.w3.org/2000/svg" width="24" height="24" fill="none" viewBox="0 0 24 24"><g clip-path="url(#a)"><path fill="url(#b)" d="M0 0h24v24H0z"/><path fill="#F7C91E" d="M9.557 9.154c-.557 0-.694-.497-.694-.745.154-.579.728-1.98 1.86-1.98 1.628 0 3.347.18 4.277.428-2.091.497-4.744 2.297-5.443 2.297"/><path fill="#F7C91E" fill-rule="evenodd" d="M8.863 8.906c0 .248.317.523.78.523.287 0 1.114-.429 2.057-.913 1.333-.686 2.893-1.492 3.437-1.346.155.249.515 1.286.699 2.477l.141.06c1.08.437 3.309 1.346 3.309 2.293 0 1.239-3.45 5.572-8.563 5.572-5.117 0-5.58-3.468-5.58-4.21 0-.745.93-2.476 3.489-3.47.154-.078.231-.592.231-.986m-.72 2.665c.154.412.84 1.286 2.143 1.286 1.629 0 5.109-2.074 5.571-2.571v1.928c0 .557-3.514 2.572-5.142 2.572-1.63 0-2.786-1.174-2.786-1.672 0-.394.137-1.213.214-1.543" clip-rule="evenodd"/></g><defs><linearGradient id="b" x1="4.466" x2="29.207" y1="4.161" y2="32.58" gradientUnits="userSpaceOnUse"><stop stop-color="#1A1E21"/><stop offset="1" stop-color="#06060A"/></linearGradient><clipPath id="a"><path fill="#fff" d="M0 0h24v24H0z"/></clipPath></defs></svg>
